!!!OTL: Schoen Adelheid Skoen Anna hon kasta en halver gullring,
!!!ARE: Nordeuropa, Sverige
!!!YOR: 4, S. 66
!!    1934 gedruckt in Helsingfors
!!!SCT: Q2074E
!!!YEM: Copyright 1995, estate of Helmut Schaffrath.
**kern
*ICvox
*Ivox
*M4/4
*k[b-e-]
*g:
{8d
=1
8.d
16e
8fn
8g
4a
8fn
8a
=2
4cc
8b-
8a
4.g}
{8g
=3
8g
8a
8b-
8cc
4dd
8cc
8b-
=4
8fn
8a
4.a
4r}
{8a
=5
4dd
8cc
8b-
4a
8fn
8a
=6
4cc
8b-
8a
4.g}
{8d
=7
8g
8a
8b-
8cc
4dd
8b-
8b-
=8
4a
4.g
4r}
==
!!!AGN: Ballade, Entfuehrung, Adelige als Dienstmagd, Wiederfinden
!! Schwedische Fassung der Ballade.
!!!ONB: ESAC (Essen Associative Code) Database: BALLADE
!!!AMT: simple quadruple
!!!AIN: vox
!!!EED: Helmut Schaffrath
!!!EEV: 1.0
*-
